material/.icons/material/account-cog.svg

<svg xmlns="http://www.w3.org/2000/svg" viewBox="0 0 24 24"><path d="M10 4a4 4 0 00-4 4 4 4 0 004 4 4 4 0 004-4 4 4 0 00-4-4m7 8a.26.26 0 00-.26.21l-.19 1.32c-.3.13-.59.29-.85.47l-1.24-.5c-.11 0-.24 0-.31.13l-1 1.73c-.06.11-.04.24.06.32l1.06.82a4.193 4.193 0 000 1l-1.06.82a.26.26 0 00-.06.32l1 1.73c.06.13.19.13.31.13l1.24-.5c.26.18.54.35.85.47l.19 1.32c.02.12.12.21.26.21h2c.11 0 .22-.09.24-.21l.19-1.32c.3-.13.57-.29.84-.47l1.23.5c.13 0 .26 0 .33-.13l1-1.73a.26.26 0 00-.06-.32l-1.07-.82c.02-.17.04-.33.04-.5 0-.17-.01-.33-.04-.5l1.06-.82a.26.26 0 00.06-.32l-1-1.73c-.06-.13-.19-.13-.32-.13l-1.23.5c-.27-.18-.54-.35-.85-.47l-.19-1.32A.236.236 0 0019 12h-2m-7 2c-4.42 0-8 1.79-8 4v2h9.68a7 7 0 01-.68-3 7 7 0 01.64-2.91c-.53-.06-1.08-.09-1.64-.09m8 1.5c.83 0 1.5.67 1.5 1.5s-.67 1.5-1.5 1.5c-.84 0-1.5-.67-1.5-1.5s.67-1.5 1.5-1.5z"/></svg>

<?xml version="1.0" encoding="UTF-8"?><!DOCTYPE svg PUBLIC "-//W3C//DTD SVG 1.1//EN" "http://www.w3.org/Graphics/SVG/1.1/DTD/svg11.dtd"><svg xmlns="http://www.w3.org/2000/svg" xmlns:xlink="http://www.w3.org/1999/xlink" version="1.1" id="mdi-account-cog" width="24" height="24" viewBox="0 0 24 24"><path d="M10 4A4 4 0 0 0 6 8A4 4 0 0 0 10 12A4 4 0 0 0 14 8A4 4 0 0 0 10 4M17 12C16.87 12 16.76 12.09 16.74 12.21L16.55 13.53C16.25 13.66 15.96 13.82 15.7 14L14.46 13.5C14.35 13.5 14.22 13.5 14.15 13.63L13.15 15.36C13.09 15.47 13.11 15.6 13.21 15.68L14.27 16.5C14.25 16.67 14.24 16.83 14.24 17C14.24 17.17 14.25 17.33 14.27 17.5L13.21 18.32C13.12 18.4 13.09 18.53 13.15 18.64L14.15 20.37C14.21 20.5 14.34 20.5 14.46 20.5L15.7 20C15.96 20.18 16.24 20.35 16.55 20.47L16.74 21.79C16.76 21.91 16.86 22 17 22H19C19.11 22 19.22 21.91 19.24 21.79L19.43 20.47C19.73 20.34 20 20.18 20.27 20L21.5 20.5C21.63 20.5 21.76 20.5 21.83 20.37L22.83 18.64C22.89 18.53 22.86 18.4 22.77 18.32L21.7 17.5C21.72 17.33 21.74 17.17 21.74 17C21.74 16.83 21.73 16.67 21.7 16.5L22.76 15.68C22.85 15.6 22.88 15.47 22.82 15.36L21.82 13.63C21.76 13.5 21.63 13.5 21.5 13.5L20.27 14C20 13.82 19.73 13.65 19.42 13.53L19.23 12.21C19.22 12.09 19.11 12 19 12H17M10 14C5.58 14 2 15.79 2 18V20H11.68A7 7 0 0 1 11 17A7 7 0 0 1 11.64 14.09C11.11 14.03 10.56 14 10 14M18 15.5C18.83 15.5 19.5 16.17 19.5 17C19.5 17.83 18.83 18.5 18 18.5C17.16 18.5 16.5 17.83 16.5 17C16.5 16.17 17.17 15.5 18 15.5Z" /></svg>
